assets/img/braze_icons/divide-01.svg

<svg fill="none" height="24" viewBox="0 0 24 24" width="24" xmlns="http://www.w3.org/2000/svg"><g clip-rule="evenodd" fill="#801ed7" fill-rule="evenodd"><path d="m10 6c0-1.10457.8954-2 2-2s2 .89543 2 2-.8954 2-2 2-2-.89543-2-2z"/><path d="m10 18c0-1.1046.8954-2 2-2s2 .8954 2 2-.8954 2-2 2-2-.8954-2-2z"/><path d="m3 12c0-.5523.44772-1 1-1h16c.5523 0 1 .4477 1 1s-.4477 1-1 1h-16c-.55228 0-1-.4477-1-1z"/></g></svg>

<svg width="24" height="24" viewBox="0 0 24 24" fill="none" xmlns="http://www.w3.org/2000/svg">
<path fill-rule="evenodd" clip-rule="evenodd" d="M10 6C10 4.89543 10.8954 4 12 4C13.1046 4 14 4.89543 14 6C14 7.10457 13.1046 8 12 8C10.8954 8 10 7.10457 10 6Z" fill="#801ED7"/>
<path fill-rule="evenodd" clip-rule="evenodd" d="M10 18C10 16.8954 10.8954 16 12 16C13.1046 16 14 16.8954 14 18C14 19.1046 13.1046 20 12 20C10.8954 20 10 19.1046 10 18Z" fill="#801ED7"/>
<path fill-rule="evenodd" clip-rule="evenodd" d="M3 12C3 11.4477 3.44772 11 4 11H20C20.5523 11 21 11.4477 21 12C21 12.5523 20.5523 13 20 13H4C3.44772 13 3 12.5523 3 12Z" fill="#801ED7"/>
</svg>
